_images/block_diagram.svg

<?xml version="1.0" encoding="UTF-8" standalone="no"?>
<!-- Do not edit this file with editors other than diagrams.net -->

<svg
   version="1.1"
   width="887.53064"
   height="341"
   viewBox="-0.5 -0.5 887.53064 341"
   content="&lt;mxfile host=&quot;Electron&quot; modified=&quot;2023-05-18T08:33:39.622Z&quot; agent=&quot;5.0 (Windows NT 10.0; Win64; x64) AppleWebKit/537.36 (KHTML, like Gecko) draw.io/16.5.1 Chrome/96.0.4664.110 Electron/16.0.7 Safari/537.36&quot; version=&quot;16.5.1&quot; etag=&quot;B68MBRvP5nJUCYHy4wJU&quot; type=&quot;device&quot;&gt;&lt;diagram id=&quot;lZ00L-VwlXBDNHSEjXac&quot;&gt;5Vlbc5s4FP41fqxHFyTg0Zd0m5l6k42Tad86MgibKUYeTGq7v34lI64C17FJt8n6gcCRdJDO953vnCEDPFnv/0rYZjUTPo8GCPj7AZ4OEHIAkVdlOGQGy6GZYZmEfmaCpWEe/uTaCLT1OfT5tjYxFSJKw03d6Ik45l5as7EkEbv6tEBE9bdu2JIbhrnHItP6JfTTlT4WAaX9Ew+Xq/zNEOiRNcsna8N2xXyxq5jwzQBPEiHS7G69n/BIxS6PS7buY8dosbGEx+k5C1C24AeLnvXZ9L7SQ37YRDzHPlfzwQCPd6sw5fMN89ToTqIrbat0HcknKG+DMIomIhLJcS3mx5+0b9NEfOeVEUyxi301ErPNo7gX4XHD6hV6SzxJ+b7zWLAIliQZF2ueJgc5JV/g6PgeCgSy510Jl+Vq26oCFba0kWmKLAvfZRTljQ5ke1Dxr4PKY3+kiCifvIhtt6FXj2M96HJ2zjOMhg6kGFGCAYXyFJaK4YptlOMg4nvtVq3RiQPxkNjQkvzMrwrH0l990AQxCDzPdS8CkftGIv0SwgpEpAWh3JbwiKXhj7r7NtT0G7LNFQyhDYYgxxraMk+Ln1X3uBXPice1k2pCNfw6qOmX1B2lLFny1HB05FQRhbNoZhk0++dpJP+A+f2tvN7+/Xjz8HE0uTHJJ1H5zBZSk2ucY1G4jBUhJUJcIjxWKRhK1RvpgXXo+8rHOOHb8CdbHP0psDfqNMfzkfGATKUlUu7HzPu+PDI550wsYv6ynNcSrl9WCmeVSPikFoAhsi1cB6UXCn1ApM1r7kAEwZZfizExMB5NMSHoYYBoJI8/XiTybqnuuvG+RsED5tvMa0v+hUUJsF5LwQlp5FEeioo8wDxJq/oAUQ8KTs2wf7391hn6yd2DjDqY3U2fPvcc/iBAXmv4fbqghL5W+LHdKKDULKBFV1MNf6HP14Tffl8FlEOfcLsNRJfamJ0C8Q8uoM38BENgueWvUfbOrZ/Nzg1B92Rd7q+cOgbp5t9U1s9m776A2v9RAcWtXnstoO77khIpJI5vtUmJgxaYvk0pgfWUxxQMMa5IyYVKYttNt68lHfkBKiybzkZyGbiT3QIYTSf/q37cPSknHxS6Tr276IVGjXa8sb4XNYGwvUhI0+OdvDzdG+C+qPs7DVN/bcVVvSECjd7QObM3dHpoDeEZX6xeJuhZ9HJNh29ALzEweq/LJBI3m7gmQh0SKaPLDpVpWm+6N4zbN9y5r+Z8pzZf3mQ7uDiNe/9C9/ZI1MxiozxeTCL395Aof+/ZJHJ7JpH5/c0gUUczeBWxjC8EnHZ8IbDdBXgL/Z/1St9iifUyvxc3hPKx/JdNNr38vxe++Rc=&lt;/diagram&gt;&lt;/mxfile&gt;"
   id="svg11"
   sodipodi:docname="block_diagram.svg"
   inkscape:version="1.3.2 (091e20e, 2023-11-25, custom)"
   xmlns:inkscape="http://www.inkscape.org/namespaces/inkscape"
   xmlns:sodipodi="http://sodipodi.sourceforge.net/DTD/sodipodi-0.dtd"
   xmlns:xlink="http://www.w3.org/1999/xlink"
   xmlns="http://www.w3.org/2000/svg"
   xmlns:svg="http://www.w3.org/2000/svg"
   xmlns:xhtml="http://www.w3.org/1999/xhtml">
  <sodipodi:namedview
     id="namedview11"
     pagecolor="#ffffff"
     bordercolor="#000000"
     borderopacity="0.25"
     inkscape:showpageshadow="2"
     inkscape:pageopacity="0.0"
     inkscape:pagecheckerboard="0"
     inkscape:deskcolor="#d1d1d1"
     inkscape:zoom="2.0567201"
     inkscape:cx="421.05875"
     inkscape:cy="140.27188"
     inkscape:window-width="2400"
     inkscape:window-height="1261"
     inkscape:window-x="2391"
     inkscape:window-y="-9"
     inkscape:window-maximized="1"
     inkscape:current-layer="g10" />
  <defs
     id="defs1" />
  <g
     id="g10"
     transform="translate(-0.46907991)">
    <rect
       x="170"
       y="0"
       width="490"
       height="340"
       fill="#eeeeee"
       stroke="#36393d"
       pointer-events="all"
       id="rect1" />
    <path
       d="m 670.49169,190.90432 0.0931,-32.37627 150.90098,0.19881 0.0465,-16.80942 64.60094,33.08205 -64.80258,32.91306 0.0465,-16.80942 z"
       fill="#ffcc99"
       stroke="#36393d"
       stroke-miterlimit="10"
       pointer-events="all"
       id="path1"
       style="stroke-width:1.2417" />
    <g
       transform="translate(31.103717,0.47242206)"
       id="g1">
      <switch
         id="switch1">
        <foreignObject
           pointer-events="none"
           width="100%"
           height="100%"
           requiredFeatures="http://www.w3.org/TR/SVG11/feature#Extensibility"
           style="overflow: visible; text-align: left;">
          <xhtml:div
             style="display: flex; align-items: unsafe center; justify-content: unsafe center; width: 1px; height: 1px; padding-top: 175px; margin-left: 734px;">
            <xhtml:div
               data-drawio-colors="color: rgb(0, 0, 0); "
               style="box-sizing: border-box; font-size: 0px; text-align: center;">
              <xhtml:div
                 style="display: inline-block; font-size: 11px; font-family: Helvetica; color: rgb(0, 0, 0); line-height: 1.2; pointer-events: all; white-space: nowrap;">QUAD SPI INTERFACE</xhtml:div>
            </xhtml:div>
          </xhtml:div>
        </foreignObject>
        <text
           x="734"
           y="178"
           fill="#000000"
           font-family="Helvetica"
           font-size="11px"
           text-anchor="middle"
           id="text1">Single/Dual/Quad SPI INTERFACE</text>
      </switch>
    </g>
    <rect
       x="540"
       y="115"
       width="104"
       height="120"
       fill="#fad7ac"
       stroke="#b46504"
       pointer-events="all"
       id="rect2" />
    <g
       transform="translate(-0.5,-0.5)"
       id="g2">
      <switch
         id="switch2">
        <foreignObject
           pointer-events="none"
           width="100%"
           height="100%"
           requiredFeatures="http://www.w3.org/TR/SVG11/feature#Extensibility"
           style="overflow: visible; text-align: left;">
          <xhtml:div
             style="display: flex; align-items: unsafe center; justify-content: unsafe center; width: 102px; height: 1px; padding-top: 175px; margin-left: 541px;">
            <xhtml:div
               data-drawio-colors="color: rgb(0, 0, 0); "
               style="box-sizing: border-box; font-size: 0px; text-align: center;">
              <xhtml:div
                 style="display: inline-block; font-size: 12px; font-family: Helvetica; color: rgb(0, 0, 0); line-height: 1.2; pointer-events: all; white-space: normal; overflow-wrap: normal;">AD3552R<xhtml:br />
INTERFACE</xhtml:div>
            </xhtml:div>
          </xhtml:div>
        </foreignObject>
        <text
           x="592"
           y="179"
           fill="#000000"
           font-family="Helvetica"
           font-size="12px"
           text-anchor="middle"
           id="text2">AD35XXR...</text>
      </switch>
    </g>
    <rect
       x="360"
       y="50"
       width="100"
       height="250"
       fill="#fff2cc"
       stroke="#d6b656"
       pointer-events="all"
       id="rect3" />
    <g
       transform="translate(-0.5,-0.5)"
       id="g3">
      <switch
         id="switch3">
        <foreignObject
           pointer-events="none"
           width="100%"
           height="100%"
           requiredFeatures="http://www.w3.org/TR/SVG11/feature#Extensibility"
           style="overflow: visible; text-align: left;">
          <xhtml:div
             style="display: flex; align-items: unsafe center; justify-content: unsafe center; width: 98px; height: 1px; padding-top: 175px; margin-left: 361px;">
            <xhtml:div
               data-drawio-colors="color: rgb(0, 0, 0); "
               style="box-sizing: border-box; font-size: 0px; text-align: center;">
              <xhtml:div
                 style="display: inline-block; font-size: 12px; font-family: Helvetica; color: rgb(0, 0, 0); line-height: 1.2; pointer-events: all; white-space: normal; overflow-wrap: normal;">AXI_AD3552R<xhtml:br />
CORE MODULE</xhtml:div>
            </xhtml:div>
          </xhtml:div>
        </foreignObject>
        <text
           x="410"
           y="179"
           fill="#000000"
           font-family="Helvetica"
           font-size="12px"
           text-anchor="middle"
           id="text3">AXI_AD35XXR...</text>
      </switch>
    </g>
    <path
       d="m 50.55,126.33 -0.1,-32.57 77.29,-0.22 -0.05,-16.9 41.81,33.07 -41.62,33.31 -0.05,-16.9 z"
       fill="#e1d5e7"
       stroke="#9673a6"
       stroke-miterlimit="10"
       pointer-events="all"
       id="path3" />
    <g
       transform="translate(-0.5,-0.5)"
       id="g4">
      <switch
         id="switch4">
        <foreignObject
           pointer-events="none"
           width="100%"
           height="100%"
           requiredFeatures="http://www.w3.org/TR/SVG11/feature#Extensibility"
           style="overflow: visible; text-align: left;">
          <xhtml:div
             style="display: flex; align-items: unsafe center; justify-content: unsafe center; width: 1px; height: 1px; padding-top: 110px; margin-left: 94px;">
            <xhtml:div
               data-drawio-colors="color: rgb(0, 0, 0); "
               style="box-sizing: border-box; font-size: 0px; text-align: center;">
              <xhtml:div
                 style="display: inline-block; font-size: 11px; font-family: Helvetica; color: rgb(0, 0, 0); line-height: 1.2; pointer-events: all; white-space: nowrap;">S_AXI_MM</xhtml:div>
            </xhtml:div>
          </xhtml:div>
        </foreignObject>
        <text
           x="94"
           y="113"
           fill="#000000"
           font-family="Helvetica"
           font-size="11px"
           text-anchor="middle"
           id="text4">S_AXI_MM</text>
      </switch>
    </g>
    <path
       d="M 0.53,266.62 0.47,234.05 124.75,233.8 124.72,216.89 166.5,250 124.85,283.28 124.82,266.37 Z"
       fill="#d5e8d4"
       stroke="#82b366"
       stroke-miterlimit="10"
       pointer-events="all"
       id="path4" />
    <g
       transform="translate(-0.5,-0.5)"
       id="g5">
      <switch
         id="switch5">
        <foreignObject
           pointer-events="none"
           width="100%"
           height="100%"
           requiredFeatures="http://www.w3.org/TR/SVG11/feature#Extensibility"
           style="overflow: visible; text-align: left;">
          <xhtml:div
             style="display: flex; align-items: unsafe center; justify-content: unsafe center; width: 1px; height: 1px; padding-top: 251px; margin-left: 81px;">
            <xhtml:div
               data-drawio-colors="color: rgb(0, 0, 0); "
               style="box-sizing: border-box; font-size: 0px; text-align: center;">
              <xhtml:div
                 style="display: inline-block; font-size: 11px; font-family: Helvetica; color: rgb(0, 0, 0); line-height: 1.2; pointer-events: all; white-space: nowrap;">DMAC OR ADC INTERFACE</xhtml:div>
            </xhtml:div>
          </xhtml:div>
        </foreignObject>
        <text
           x="81"
           y="254"
           fill="#000000"
           font-family="Helvetica"
           font-size="11px"
           text-anchor="middle"
           id="text5">DMAC OR ADC INTERFACE</text>
      </switch>
    </g>
    <rect
       x="190"
       y="70"
       width="100"
       height="80"
       fill="#e1d5e7"
       stroke="#9673a6"
       pointer-events="all"
       id="rect5" />
    <g
       transform="translate(-0.5,-0.5)"
       id="g6">
      <switch
         id="switch6">
        <foreignObject
           pointer-events="none"
           width="100%"
           height="100%"
           requiredFeatures="http://www.w3.org/TR/SVG11/feature#Extensibility"
           style="overflow: visible; text-align: left;">
          <xhtml:div
             style="display: flex; align-items: unsafe center; justify-content: unsafe center; width: 98px; height: 1px; padding-top: 110px; margin-left: 191px;">
            <xhtml:div
               data-drawio-colors="color: rgb(0, 0, 0); "
               style="box-sizing: border-box; font-size: 0px; text-align: center;">
              <xhtml:div
                 style="display: inline-block; font-size: 12px; font-family: Helvetica; color: rgb(0, 0, 0); line-height: 1.2; pointer-events: all; white-space: normal; overflow-wrap: normal;">S_AXI TO UP</xhtml:div>
            </xhtml:div>
          </xhtml:div>
        </foreignObject>
        <text
           x="240"
           y="114"
           fill="#000000"
           font-family="Helvetica"
           font-size="12px"
           text-anchor="middle"
           id="text6">S_AXI TO UP</text>
      </switch>
    </g>
    <path
       d="m 290,110 h 30 v 60 h 23.63"
       fill="none"
       stroke="#000000"
       stroke-miterlimit="10"
       pointer-events="stroke"
       id="path6" />
    <path
       d="m 348.88,170 -7,3.5 1.75,-3.5 -1.75,-3.5 z"
       fill="#000000"
       stroke="#000000"
       stroke-miterlimit="10"
       pointer-events="all"
       id="path7" />
    <path
       d="m 190,250 h 130 v -70 h 23.63"
       fill="none"
       stroke="#000000"
       stroke-miterlimit="10"
       pointer-events="stroke"
       id="path8" />
    <path
       d="m 348.88,180 -7,3.5 1.75,-3.5 -1.75,-3.5 z"
       fill="#000000"
       stroke="#000000"
       stroke-miterlimit="10"
       pointer-events="all"
       id="path9" />
    <path
       d="m 470.5,179.71 v -10 h 40 v -10.5 l 19,15.5 -19,15.5 v -10.5 z"
       fill="#ffe6cc"
       stroke="#d79b00"
       stroke-miterlimit="10"
       pointer-events="all"
       id="path10" />
  </g>
  <switch
     id="switch11"
     transform="translate(-0.46907991)">
    <g
       requiredFeatures="http://www.w3.org/TR/SVG11/feature#Extensibility"
       id="g11" />
    <a
       transform="translate(0,-5)"
       xlink:href="https://www.diagrams.net/doc/faq/svg-export-text-problems"
       target="_blank"
       id="a11">
      <text
         text-anchor="middle"
         font-size="10px"
         x="50%"
         y="100%"
         id="text11">Text is not SVG - cannot display</text>
    </a>
  </switch>
</svg>

<?xml version="1.0" encoding="UTF-8"?>
<!-- Do not edit this file with editors other than diagrams.net -->
<!DOCTYPE svg PUBLIC "-//W3C//DTD SVG 1.1//EN" "http://www.w3.org/Graphics/SVG/1.1/DTD/svg11.dtd">
<svg xmlns="http://www.w3.org/2000/svg" xmlns:xlink="http://www.w3.org/1999/xlink" version="1.1" width="811px" height="341px" viewBox="-0.5 -0.5 811 341" content="&lt;mxfile host=&quot;Electron&quot; modified=&quot;2023-05-18T08:33:39.622Z&quot; agent=&quot;5.0 (Windows NT 10.0; Win64; x64) AppleWebKit/537.36 (KHTML, like Gecko) draw.io/16.5.1 Chrome/96.0.4664.110 Electron/16.0.7 Safari/537.36&quot; version=&quot;16.5.1&quot; etag=&quot;B68MBRvP5nJUCYHy4wJU&quot; type=&quot;device&quot;&gt;&lt;diagram id=&quot;lZ00L-VwlXBDNHSEjXac&quot;&gt;5Vlbc5s4FP41fqxHFyTg0Zd0m5l6k42Tad86MgibKUYeTGq7v34lI64C17FJt8n6gcCRdJDO953vnCEDPFnv/0rYZjUTPo8GCPj7AZ4OEHIAkVdlOGQGy6GZYZmEfmaCpWEe/uTaCLT1OfT5tjYxFSJKw03d6Ik45l5as7EkEbv6tEBE9bdu2JIbhrnHItP6JfTTlT4WAaX9Ew+Xq/zNEOiRNcsna8N2xXyxq5jwzQBPEiHS7G69n/BIxS6PS7buY8dosbGEx+k5C1C24AeLnvXZ9L7SQ37YRDzHPlfzwQCPd6sw5fMN89ToTqIrbat0HcknKG+DMIomIhLJcS3mx5+0b9NEfOeVEUyxi301ErPNo7gX4XHD6hV6SzxJ+b7zWLAIliQZF2ueJgc5JV/g6PgeCgSy510Jl+Vq26oCFba0kWmKLAvfZRTljQ5ke1Dxr4PKY3+kiCifvIhtt6FXj2M96HJ2zjOMhg6kGFGCAYXyFJaK4YptlOMg4nvtVq3RiQPxkNjQkvzMrwrH0l990AQxCDzPdS8CkftGIv0SwgpEpAWh3JbwiKXhj7r7NtT0G7LNFQyhDYYgxxraMk+Ln1X3uBXPice1k2pCNfw6qOmX1B2lLFny1HB05FQRhbNoZhk0++dpJP+A+f2tvN7+/Xjz8HE0uTHJJ1H5zBZSk2ucY1G4jBUhJUJcIjxWKRhK1RvpgXXo+8rHOOHb8CdbHP0psDfqNMfzkfGATKUlUu7HzPu+PDI550wsYv6ynNcSrl9WCmeVSPikFoAhsi1cB6UXCn1ApM1r7kAEwZZfizExMB5NMSHoYYBoJI8/XiTybqnuuvG+RsED5tvMa0v+hUUJsF5LwQlp5FEeioo8wDxJq/oAUQ8KTs2wf7391hn6yd2DjDqY3U2fPvcc/iBAXmv4fbqghL5W+LHdKKDULKBFV1MNf6HP14Tffl8FlEOfcLsNRJfamJ0C8Q8uoM38BENgueWvUfbOrZ/Nzg1B92Rd7q+cOgbp5t9U1s9m776A2v9RAcWtXnstoO77khIpJI5vtUmJgxaYvk0pgfWUxxQMMa5IyYVKYttNt68lHfkBKiybzkZyGbiT3QIYTSf/q37cPSknHxS6Tr276IVGjXa8sb4XNYGwvUhI0+OdvDzdG+C+qPs7DVN/bcVVvSECjd7QObM3dHpoDeEZX6xeJuhZ9HJNh29ALzEweq/LJBI3m7gmQh0SKaPLDpVpWm+6N4zbN9y5r+Z8pzZf3mQ7uDiNe/9C9/ZI1MxiozxeTCL395Aof+/ZJHJ7JpH5/c0gUUczeBWxjC8EnHZ8IbDdBXgL/Z/1St9iifUyvxc3hPKx/JdNNr38vxe++Rc=&lt;/diagram&gt;&lt;/mxfile&gt;" style="background-color: rgb(255, 255, 255);"><defs/><g><rect x="170" y="0" width="490" height="340" fill="#eeeeee" stroke="#36393d" pointer-events="all"/><path d="M 670.47 191 L 670.53 158.43 L 767.82 158.63 L 767.85 141.72 L 809.5 175 L 767.72 208.11 L 767.75 191.2 Z" fill="#ffcc99" stroke="#36393d" stroke-miterlimit="10" pointer-events="all"/><g transform="translate(-0.5 -0.5)"><switch><foreignObject pointer-events="none" width="100%" height="100%" requiredFeatures="http://www.w3.org/TR/SVG11/feature#Extensibility" style="overflow: visible; text-align: left;"><div xmlns="http://www.w3.org/1999/xhtml" style="display: flex; align-items: unsafe center; justify-content: unsafe center; width: 1px; height: 1px; padding-top: 175px; margin-left: 734px;"><div data-drawio-colors="color: rgb(0, 0, 0); " style="box-sizing: border-box; font-size: 0px; text-align: center;"><div style="display: inline-block; font-size: 11px; font-family: Helvetica; color: rgb(0, 0, 0); line-height: 1.2; pointer-events: all; white-space: nowrap;">QUAD SPI INTERFACE</div></div></div></foreignObject><text x="734" y="178" fill="rgb(0, 0, 0)" font-family="Helvetica" font-size="11px" text-anchor="middle">QUAD SPI INTERFACE</text></switch></g><rect x="540" y="115" width="104" height="120" fill="#fad7ac" stroke="#b46504" pointer-events="all"/><g transform="translate(-0.5 -0.5)"><switch><foreignObject pointer-events="none" width="100%" height="100%" requiredFeatures="http://www.w3.org/TR/SVG11/feature#Extensibility" style="overflow: visible; text-align: left;"><div xmlns="http://www.w3.org/1999/xhtml" style="display: flex; align-items: unsafe center; justify-content: unsafe center; width: 102px; height: 1px; padding-top: 175px; margin-left: 541px;"><div data-drawio-colors="color: rgb(0, 0, 0); " style="box-sizing: border-box; font-size: 0px; text-align: center;"><div style="display: inline-block; font-size: 12px; font-family: Helvetica; color: rgb(0, 0, 0); line-height: 1.2; pointer-events: all; white-space: normal; overflow-wrap: normal;">AD3552R<br />INTERFACE</div></div></div></foreignObject><text x="592" y="179" fill="rgb(0, 0, 0)" font-family="Helvetica" font-size="12px" text-anchor="middle">AD3552R...</text></switch></g><rect x="360" y="50" width="100" height="250" fill="#fff2cc" stroke="#d6b656" pointer-events="all"/><g transform="translate(-0.5 -0.5)"><switch><foreignObject pointer-events="none" width="100%" height="100%" requiredFeatures="http://www.w3.org/TR/SVG11/feature#Extensibility" style="overflow: visible; text-align: left;"><div xmlns="http://www.w3.org/1999/xhtml" style="display: flex; align-items: unsafe center; justify-content: unsafe center; width: 98px; height: 1px; padding-top: 175px; margin-left: 361px;"><div data-drawio-colors="color: rgb(0, 0, 0); " style="box-sizing: border-box; font-size: 0px; text-align: center;"><div style="display: inline-block; font-size: 12px; font-family: Helvetica; color: rgb(0, 0, 0); line-height: 1.2; pointer-events: all; white-space: normal; overflow-wrap: normal;">AXI_AD3552R<br />CORE MODULE</div></div></div></foreignObject><text x="410" y="179" fill="rgb(0, 0, 0)" font-family="Helvetica" font-size="12px" text-anchor="middle">AXI_AD3552R...</text></switch></g><path d="M 50.55 126.33 L 50.45 93.76 L 127.74 93.54 L 127.69 76.64 L 169.5 109.71 L 127.88 143.02 L 127.83 126.12 Z" fill="#e1d5e7" stroke="#9673a6" stroke-miterlimit="10" pointer-events="all"/><g transform="translate(-0.5 -0.5)"><switch><foreignObject pointer-events="none" width="100%" height="100%" requiredFeatures="http://www.w3.org/TR/SVG11/feature#Extensibility" style="overflow: visible; text-align: left;"><div xmlns="http://www.w3.org/1999/xhtml" style="display: flex; align-items: unsafe center; justify-content: unsafe center; width: 1px; height: 1px; padding-top: 110px; margin-left: 94px;"><div data-drawio-colors="color: rgb(0, 0, 0); " style="box-sizing: border-box; font-size: 0px; text-align: center;"><div style="display: inline-block; font-size: 11px; font-family: Helvetica; color: rgb(0, 0, 0); line-height: 1.2; pointer-events: all; white-space: nowrap;">S_AXI_MM</div></div></div></foreignObject><text x="94" y="113" fill="rgb(0, 0, 0)" font-family="Helvetica" font-size="11px" text-anchor="middle">S_AXI_MM</text></switch></g><path d="M 0.53 266.62 L 0.47 234.05 L 124.75 233.8 L 124.72 216.89 L 166.5 250 L 124.85 283.28 L 124.82 266.37 Z" fill="#d5e8d4" stroke="#82b366" stroke-miterlimit="10" pointer-events="all"/><g transform="translate(-0.5 -0.5)"><switch><foreignObject pointer-events="none" width="100%" height="100%" requiredFeatures="http://www.w3.org/TR/SVG11/feature#Extensibility" style="overflow: visible; text-align: left;"><div xmlns="http://www.w3.org/1999/xhtml" style="display: flex; align-items: unsafe center; justify-content: unsafe center; width: 1px; height: 1px; padding-top: 251px; margin-left: 81px;"><div data-drawio-colors="color: rgb(0, 0, 0); " style="box-sizing: border-box; font-size: 0px; text-align: center;"><div style="display: inline-block; font-size: 11px; font-family: Helvetica; color: rgb(0, 0, 0); line-height: 1.2; pointer-events: all; white-space: nowrap;">DMAC OR ADC INTERFACE</div></div></div></foreignObject><text x="81" y="254" fill="rgb(0, 0, 0)" font-family="Helvetica" font-size="11px" text-anchor="middle">DMAC OR ADC INTERFACE</text></switch></g><rect x="190" y="70" width="100" height="80" fill="#e1d5e7" stroke="#9673a6" pointer-events="all"/><g transform="translate(-0.5 -0.5)"><switch><foreignObject pointer-events="none" width="100%" height="100%" requiredFeatures="http://www.w3.org/TR/SVG11/feature#Extensibility" style="overflow: visible; text-align: left;"><div xmlns="http://www.w3.org/1999/xhtml" style="display: flex; align-items: unsafe center; justify-content: unsafe center; width: 98px; height: 1px; padding-top: 110px; margin-left: 191px;"><div data-drawio-colors="color: rgb(0, 0, 0); " style="box-sizing: border-box; font-size: 0px; text-align: center;"><div style="display: inline-block; font-size: 12px; font-family: Helvetica; color: rgb(0, 0, 0); line-height: 1.2; pointer-events: all; white-space: normal; overflow-wrap: normal;">S_AXI TO UP</div></div></div></foreignObject><text x="240" y="114" fill="rgb(0, 0, 0)" font-family="Helvetica" font-size="12px" text-anchor="middle">S_AXI TO UP</text></switch></g><path d="M 290 110 L 320 110 L 320 170 L 343.63 170" fill="none" stroke="rgb(0, 0, 0)" stroke-miterlimit="10" pointer-events="stroke"/><path d="M 348.88 170 L 341.88 173.5 L 343.63 170 L 341.88 166.5 Z" fill="rgb(0, 0, 0)" stroke="rgb(0, 0, 0)" stroke-miterlimit="10" pointer-events="all"/><path d="M 190 250 L 320 250 L 320 180 L 343.63 180" fill="none" stroke="rgb(0, 0, 0)" stroke-miterlimit="10" pointer-events="stroke"/><path d="M 348.88 180 L 341.88 183.5 L 343.63 180 L 341.88 176.5 Z" fill="rgb(0, 0, 0)" stroke="rgb(0, 0, 0)" stroke-miterlimit="10" pointer-events="all"/><path d="M 470.5 179.71 L 470.5 169.71 L 510.5 169.71 L 510.5 159.21 L 529.5 174.71 L 510.5 190.21 L 510.5 179.71 Z" fill="#ffe6cc" stroke="#d79b00" stroke-miterlimit="10" pointer-events="all"/></g><switch><g requiredFeatures="http://www.w3.org/TR/SVG11/feature#Extensibility"/><a transform="translate(0,-5)" xlink:href="https://www.diagrams.net/doc/faq/svg-export-text-problems" target="_blank"><text text-anchor="middle" font-size="10px" x="50%" y="100%">Text is not SVG - cannot display</text></a></switch></svg>
